!!!COM: Palestrina, Giovanni Perluigi da
!!!OPR: O admirabile commercium
!!!OTL: Kyrie
**kern	**kern	**kern	**kern	**kern
*Ibass	*Itenor	*Itenor	*Icalto	*Icant
!Bassus	!Tenor 2	!Tenor 1	!Altus	!Cantus
*clefF4	*clefGv2	*clefGv2	*clefG2	*clefG2
*k[]	*k[]	*k[]	*k[]	*k[]
*G:mix	*G:mix	*G:mix	*G:mix	*G:mix
*M4/2	*M4/2	*M4/2	*M4/2	*M4/2
=1	=1	=1	=1	=1
0r	1r	0r	1.d	[0dd
.	[1d	.	.	.
.	.	.	2e	.
=2	=2	=2	=2	=2
0r	2d]	0r	2f#	0dd]
.	2e	.	2g	.
.	1f#	.	1a	.
=3	=3	=3	=3	=3
0r	1.g	1.G	1b	0dd
.	.	.	[1g	.
.	4f	2A	.	.
.	4e	.	.	.
=4	=4	=4	=4	=4
0r	1d	1B	2g]	1dd
.	.	.	2f	.
.	4g	2.c	2e	[1ee
.	4f	.	.	.
.	4e	.	[2cc	.
.	4d	4d	.	.
=5	=5	=5	=5	=5
1r	2c	4e	2cc]	2ee]
.	.	4f#	.	.
.	2G	1g	2b	2dd
[1D	1d	.	1a	1dd
.	.	4f#	.	.
.	.	4e	.	.
=6	=6	=6	=6	=6
2D]	1.d	2f#	0r	[0dd
2E	.	2g	.	.
1F#	.	1a	.	.
.	2c	.	.	.
=7	=7	=7	=7	=7
2.G	2.B	1g	2r	0dd]
.	.	.	1g	.
4A	4c	.	.	.
4B	1d	2r	.	.
4c	.	.	.	.
[2d	.	[2a	2f	.
=8	=8	=8	=8	=8
4d]	2A	2a]	1e	1r
4c	.	.	.	.
1c	2c	2g	.	.
.	1G	2.g	1d	2r
2B	.	.	.	[2g
.	.	4f	.	.
=9	=9	=9	=9	=9
1c	1r	1e	4c	2g]
.	.	.	4d	.
.	.	.	4e	2a
.	.	.	4f	.
1G	2r	1d	1g	1b
.	[2g	.	.	.
=10	=10	=10	=10	=10
0r	2g]	2c	2e	2.cc
.	2f	2F	2a	.
.	.	.	.	4dd
.	1e	2.c	1g	4ee
.	.	.	.	4ff
.	.	.	.	[2gg
.	.	4B	.	.
=11	=11	=11	=11	=11
0D	0d	1A	0a	2gg]
.	.	.	.	4ff#
.	.	.	.	4ee
.	.	2r	.	1ff#
.	.	2d	.	.
=12	=12	=12	=12	=12
0G	1d	2B	0b	1gg
.	.	4G	.	.
.	.	4A	.	.
.	2r	4B	.	1dd
.	.	4c	.	.
.	2g	2d	.	.
=13	=13	=13	=13	=13
1C	2e	4c	1g	1ee
.	.	4d	.	.
.	4c	4e	.	.
.	4d	4f	.	.
1C	4e	4g	2r	1ee
.	4f	4f	.	.
.	2g	4e	2cc	.
.	.	4d	.	.
=14	=14	=14	=14	=14
1.F	2f	0c	2a	1.ff
.	1a	.	4f	.
.	.	.	4g	.
.	.	.	4a	.
.	.	.	4b	.
2C	2g	.	[2cc	2ee
=15	=15	=15	=15	=15
1G	1.g	1d	2cc]	2dd
.	.	.	2b	2dd
1C	.	1c	2cc	1ee
.	2e	.	2g	.
=16	=16	=16	=16	=16
0r	2f	0r	2a	2dd
.	2e	.	2g	1ee
.	1f	.	[1a	.
.	.	.	.	2dd
=17	=17	=17	=17	=17
0r	1e	0r	2a]	2cc
.	.	.	2g	2b
.	2A	.	2f	1a
.	[2c	.	2e	.
=18	=18	=18	=18	=18
1G	2c]	2r	1d	[0g
.	2B	2d	.	.
1c	1c	1e	2r	.
.	.	.	2c	.
=19	=19	=19	=19	=19
2B	0r	2d	2d	0g]
1c	.	1e	2c	.
.	.	.	1G	.
2B	.	2d	.	.
=20	=20	=20	=20	=20
2A	1e	2c	2r	0r
2G	.	2B	2g	.
1F	1f	[1c	1a	.
=21	=21	=21	=21	=21
2C	2e	2c]	2g	0r
1F	1f	2c	1a	.
.	.	2f	.	.
2C	2e	2g	2g	.
=22	=22	=22	=22	=22
1F	2d	1a	2f	1r
.	1c	.	2e	.
1G	.	1g	1d	1dd
.	2B	.	.	.
=23	=23	=23	=23	=23
2C	1c	2r	4c	1ee
.	.	.	4d	.
2c	.	2.g	4e	.
.	.	.	4f	.
2B	1r	.	[1g	2dd
.	.	4f	.	.
[2c	.	4e	.	[2ee
.	.	4d	.	.
=24	=24	=24	=24	=24
2c]	0r	2c	1g]	2ee]
2B	.	2d	.	2dd
2A	.	2e	1r	2cc
2G	.	[2g	.	2b
=25	=25	=25	=25	=25
1d	1r	2g]	2r	1a
.	.	2f#	2a	.
2G	1d	1g	2b	1g
2G	.	.	2b	.
=26	=26	=26	=26	=26
4C	1e	[0g	1cc	2r
4D	.	.	.	.
4E	.	.	.	2.gg
4F	.	.	.	.
2G	2d	.	2b	.
.	.	.	.	4ff
[2C	[2e	.	[2cc	4ee
.	.	.	.	4dd
=27	=27	=27	=27	=27
2C]	2e]	1g]	2cc]	2cc
2G	2d	.	2b	2dd
1C	2c	2r	4a	2ee
.	.	.	4g	.
.	2B	2G	[2g	2ee
=28	=28	=28	=28	=28
0D	0A	2d	2g]	0dd
.	.	2d	4f#	.
.	.	.	4e	.
.	.	1d	1f#	.
=29	=29	=29	=29	=29
0G	0G	0d	0g	0b
=30	=30	=30	=30	=30
0r	1.c	0r	1.g	1.ee
.	2c	.	2a	2ee
=31	=31	=31	=31	=31
0r	2g	0r	2b	2dd
.	2e	.	2g	2ee
.	2f	.	2a	2cc
.	2d	.	2b	2dd
=32	=32	=32	=32	=32
1r	4c	1r	1.cc	1ee
.	4d	.	.	.
.	4e	.	.	.
.	4f	.	.	.
[1G	[1g	[1d	.	1dd
.	.	.	4b	.
.	.	.	4a	.
=33	=33	=33	=33	=33
2G]	1g]	2d]	1b	0r
2G	.	2e	.	.
2d	2r	2f	2a	.
2B	[2g	2d	2b	.
=34	=34	=34	=34	=34
2c	2g]	2e	2g	0r
2A	2c	2f	2a	.
[1G	2d	1g	2b	.
.	2e	.	[2cc	.
=35	=35	=35	=35	=35
1G]	1d	1g	2cc]	1r
.	.	.	2b	.
2.F	2.f	2a	1cc	2r
.	.	2f	.	[2cc
4G	8e	.	.	.
.	8d	.	.	.
=36	=36	=36	=36	=36
2A	2c	2e	2r	2cc]
2B	2G	2d	1g	2dd
1c	1r	4c	.	2ee
.	.	4d	.	.
.	.	4e	2a	2cc
.	.	4c	.	.
=37	=37	=37	=37	=37
1G	0r	1g	2b	2dd
.	.	.	2g	2ee
1d	.	2.f	2a	1ff
.	.	.	2b	.
.	.	4g	.	.
=38	=38	=38	=38	=38
1c	2r	2a	2.cc	1.ee
.	1c	1g	.	.
.	.	.	4b	.
1r	.	.	1a	.
.	2d	2f	.	4dd
.	.	.	.	4cc
=39	=39	=39	=39	=39
0r	2e	2g	2g	2b
.	2c	1a	2cc	2ee
.	2d	.	1b	2ff
.	2e	2g#	.	2ee
=40	=40	=40	=40	=40
2r	2.f	1a	2r	4dd
.	.	.	.	4cc
1F	.	.	1a	1cc
.	4e	.	.	.
.	1d	1r	.	.
2G	.	.	4g	2b
.	.	.	4f	.
=41	=41	=41	=41	=41
2A	2c	0r	2e	2.cc
2F	2f	.	2a	.
.	.	.	.	4a
2G	2d	.	2g	2b-
2A	[2f	.	2c	[2a
=42	=42	=42	=42	=42
1B-	2f]	1r	1d	2a]
.	4e	.	.	2g
.	4d	.	.	.
2.A	4c	2r	1e	[1a
.	4d	.	.	.
.	2e	[2c	.	.
4G	.	.	.	.
=43	=43	=43	=43	=43
1F	1A	2c]	2r	1a]
.	.	2d	2f	.
2E	2.c	2e	2g	1r
[2F	.	2c	2a	.
.	4B	.	.	.
=44	=44	=44	=44	=44
2F]	2A	2d	2f	0r
2E	2G	2e	2g	.
1D	1d	1f	2a	.
.	.	.	2b	.
=45	=45	=45	=45	=45
1C	2G	2e	[0cc	2r
.	2g	2c	.	2ee
1r	[1a	[1f	.	[1ff
=46	=46	=46	=46	=46
0r	2a]	2f]	1cc]	2ff]
.	2g	2c	.	2ee
.	1g	1c	1cc	1ee
=47	=47	=47	=47	=47
0r	1.f	1d	2a	2dd
.	.	.	2a	1dd
.	.	1A	1a	.
.	2e	.	.	2cc
=48	=48	=48	=48	=48
0r	2d	2B	4g	2dd
.	.	.	4f	.
.	2c	2c	4e	2.ee
.	.	.	4d	.
.	2e	1A	1c	.
.	.	.	.	4dd
.	2f	.	.	[2cc
=49	=49	=49	=49	=49
2r	2g	1G	2d	2cc]
2G	2d	.	1g	2b
[1c	[1e	2r	.	1cc
.	.	2g	[2cc	.
=50	=50	=50	=50	=50
2c]	2e]	1.g	2cc]	0r
2G	2d	.	2b	.
1G	1d	.	1b	.
.	.	2g	.	.
=51	=51	=51	=51	=51
1A	2c	1e	1.a	0r
.	2A	.	.	.
1E	2B	1e	.	.
.	2c	.	2g	.
=52	=52	=52	=52	=52
2F	2A	4d	2a	2r
.	.	4c	.	.
2G	2G	4B	2.b	2g
.	.	4A	.	.
1E	1g	1G	.	2b
.	.	.	4a	.
.	.	.	[2g	2cc
=53	=53	=53	=53	=53
1D	1r	1A	2g]	1dd
.	.	.	2f#	.
1G	2r	2G	1g	1b
.	2d	[2g	.	.
=54	=54	=54	=54	=54
0r	2e	2g]	2c	1cc
.	2f	2a	1cc	.
.	1d	1f	.	1dd
.	.	.	2b	.
=55	=55	=55	=55	=55
2r	2c	2g	1cc	2ee
2A	2e	2a	.	2cc
2B	2d	4g	2r	2dd
.	.	4f	.	.
2c	[2c	4e	2c	[2ee
.	.	4d	.	.
=56	=56	=56	=56	=56
1A	2c]	1c	2e	4ee]
.	.	.	.	4dd
.	2A	.	2f	1cc
1G	4B	1d	2.g	.
.	4G	.	.	.
.	[2g	.	.	2b
.	.	.	4f	.
=57	=57	=57	=57	=57
[0C	4g]	[0c	2e	[0cc
.	4f	.	.	.
.	4e	.	2c	.
.	4d	.	.	.
.	1e	.	1g	.
=58	=58	=58	=58	=58
0C]	0e	0c]	0g	0cc]
=59	=59	=59	=59	=59
0r	0r	0r	1.g	1r
.	.	.	.	[1dd
.	.	.	2f#	.
=60	=60	=60	=60	=60
0r	1r	0r	2g	2dd]
.	.	.	2e	2cc#
.	2r	.	2f#	2dd
.	[2g	.	2g	2b
=61	=61	=61	=61	=61
0r	2g]	0r	2e	2cc#
.	2f#	.	2d	2.dd
.	2g	.	2G	.
.	.	.	.	4b
.	2e	.	2g	2ee
=62	=62	=62	=62	=62
0r	2f#	0r	2a	2.dd
.	1g	.	2b	.
.	.	.	.	4cc
.	.	.	2g	2b
.	2f	.	[2a	[2cc
=63	=63	=63	=63	=63
0r	1e	0r	4a]	4cc]
.	.	.	4g	4b
.	.	.	1g	2g
.	1d	.	.	1a
.	.	.	2f#	.
=64	=64	=64	=64	=64
1.G	1.B	1r	1.g	4g
.	.	.	.	4a
.	.	.	.	4b
.	.	.	.	4cc
.	.	[1d	.	1dd
2F#	2A	.	2a	.
=65	=65	=65	=65	=65
2G	2B	2d]	1g	1r
2E	2G	2c#	.	.
2F#	2A	2d	2r	1dd
2G	2B	2B	[2g	.
=66	=66	=66	=66	=66
2E	2G	2c#	2g]	2ee
2D	1A	1d	2f	1ff
1A	.	.	1a	.
.	[2a	2c	.	[2ee
=67	=67	=67	=67	=67
1r	2a]	1B	1d	4ee]
.	.	.	.	4dd
.	2g#	.	.	1dd
2r	1a	[1A	1e	.
2A	.	.	.	2cc#
=68	=68	=68	=68	=68
2F#	0d	2A]	2r	0dd
2G	.	2B	1g	.
1D	.	1A	.	.
.	.	.	2f#	.
=69	=69	=69	=69	=69
1G	2r	1B	2.g	2r
.	1g	.	.	1b
.	.	.	8f	.
.	.	.	8e	.
1r	.	1r	1d	.
.	2f#	.	.	2a
=70	=70	=70	=70	=70
0r	2g	0r	2G	2b
.	2e	.	2g	2cc
.	2f#	.	2a	2dd
.	[2g	.	[2b	[2ee
=71	=71	=71	=71	=71
0r	2g]	1r	2b]	4ee]
.	.	.	.	4dd
.	2f	.	2a	1dd
.	1e	2r	1g	.
.	.	[2g	.	2cc#
=72	=72	=72	=72	=72
1r	1d	2g]	1a	[0dd
.	.	2f#	.	.
[1G	2r	2.g	1d	.
.	[2B	.	.	.
.	.	8f	.	.
.	.	8e	.	.
=73	=73	=73	=73	=73
2G]	2B]	1.d	1r	1dd]
2F#	2A	.	.	.
2G	2B	.	2r	1r
2E	2c	2G	2e	.
=74	=74	=74	=74	=74
2F#	4d	2A	1d	2r
.	4c	.	.	.
1G	4B	2.B	.	1b
.	4A	.	.	.
.	2G	.	2e	.
.	.	4c	.	.
2F	2A	[2d	2f	2a
=75	=75	=75	=75	=75
1E	1G	2d]	1g	2b
.	.	1c	.	2cc
1D	1r	.	1f	1dd
.	.	2B	.	.
=76	=76	=76	=76	=76
2C	2r	1c	4e	2.ee
.	.	.	4d	.
1c	1e	.	4c	.
.	.	.	4d	4ff
.	.	1r	4e	1gg
.	.	.	4f	.
2B	2d	.	[2g	.
=77	=77	=77	=77	=77
2c	2e	1r	2g]	0r
2A	2f	.	2c	.
2B	[1g	2r	2d	.
[2c	.	[2e	2c	.
=78	=78	=78	=78	=78
2c]	1g]	2e]	1G	1r
2B	.	2d	.	.
1A	1c	2.e	2r	2r
.	.	.	[2e	[2cc
.	.	4f	.	.
=79	=79	=79	=79	=79
1G	0r	1g	2e]	2cc]
.	.	.	2d	2b
1r	.	2c	2e	2cc
.	.	2d	2f#	2a
=80	=80	=80	=80	=80
0r	0r	2B	2g	2b
.	.	2A	1a	1cc
.	.	2.e	.	.
.	.	.	[2g	2b
.	.	4d	.	.
=81	=81	=81	=81	=81
1r	1r	2c	2g]	1a
.	.	2d	2f#	.
2r	2r	2.G	2.g	4g
.	.	.	.	4a
[2G	[2B	.	.	4b
.	.	4A	8f	4cc
.	.	.	8e	.
=82	=82	=82	=82	=82
2G]	2B]	4B	2d	1dd
.	.	4c	.	.
2F#	2A	1d	1dd	.
2G	2B	.	.	1r
2E	2c	2G	[2cc	.
=83	=83	=83	=83	=83
2F	2.d	2A	2cc]	2r
1G	.	4B	2b	1b
.	4c	4c	.	.
.	2B	4d	2g	.
.	.	4e	.	.
2F	2c	4f	[2a	2a
.	.	8e	.	.
.	.	8f	.	.
=84	=84	=84	=84	=84
1E	1G	2g	4a]	2b
.	.	.	4g	.
.	.	2G	1g	2cc
1D	1A	1d	.	1dd
.	.	.	2f#	.
=85	=85	=85	=85	=85
0G	0G	0d	0g	0b
==	==	==	==	==
*-	*-	*-	*-	*-
!!!CDT: 1525/^1526/-1594/2/2
!!!OCY: Italia
!!!AGN: Mass (Parody)
!!!AST: renaissance, vocal
!!!ASW: Motet 1569 (Palestrina)
!!!PWK: Masses, Book 8
!!!RNB: Cadence finals: C,D
!!!YOR: Le Opere Complete, v. 24, p. 52
!!!YOO: Rome, Italy: Fratelli Scalera
!!!END: 1992//
!!!EED: John Miller
!!!YEC: Copyright 2000, John Miller
!!!YEN: United States of America
!!!YEM: Rights to all derivative electronic formats reserved.
!!!YEM: Refer to licensing agreement for further details.
!!!YEM: This file must be accompanied by the licensing agreement.
!!!YEM: A copy of the licensing agreement may be found at http://www.music-cog.ohio-state.edu/HumdrumDatabases/Palestrina/license.txt
!!!EMD: converted to Humdrum by Bret Aarden
